X: 612
T: Across The Black River
R: jig
M: 6/8
K: Bminor
|:BBB BAB|FAB A2 f|ecA ABc|~B2 A F2 E|
BBB BAB|AFE Ace|fff fec|1 BBB B2 A:|2 BBB ABc||
|:efe e2 c|~B2 A FFF|EFA cBA|c2 e Bcd|
efe e2 c|~B2 A FFF|BcB A2 E|FFF F2 z:|

